third_party/noto/noto_2/emoji_u1f42e.svg

<svg enable-background="new 0 0 128 128" version="1.1" viewBox="0 0 128 128" xmlns="http://www.w3.org/2000/svg"><path d="m74.69 26.69s5.69-14.35 12.25-13.09c7.32 1.41 3.24 18.72 3.24 18.72l-15.49-5.63z" fill="#FFB903"/><path d="m55.27 24.29s-6.9-13.66-12.67-11.68-1.55 19.99-1.55 19.99l14.22-8.31z" fill="#FFB903"/><path d="m47.94 25.28s1.97-2.39 18.44-1.83 25.62 6.34 25.62 6.34 5.68-4.35 11.22-6.24c8.23-2.8 19.3 1.91 20.17 3.71 0.67 1.37-3.1 13.57-8.02 17.74-5.49 4.65-11.4 4.36-11.4 4.36s-1.3 8.55-1.55 14.92c-0.14 3.66 0.36 7.48 0.99 9.43 1.27 3.94 1.99 6.65 2.62 11.48 0.53 4.03 0.62 7.94 0.62 7.94l-65.32-16.47 6.61-51.38z" fill="#DFDFDF"/><path d="m38.79 75.54s10.23-2.72 12.95-4.18c2.32-1.24 15.35-6.95 16.33-24.54s-11.44-22.71-13.13-23.14c-1.69-0.42-7.79 1.22-11.36 3-1.52 0.76-4.79 2.96-4.79 2.96s-6.48-6.76-16.61-7.74c-10.13-0.99-17.74 4.36-17.88 5.07-0.14 0.7 3.8 14.53 11.01 19.34 2.1 1.4 4.8 2.03 6.65 2.28 4.84 0.66 6.69 0.06 6.69 0.06s-0.7 7.46-0.84 11.26-0.22 9.17-0.66 13.05c-0.28 2.49-3.66 9.1-3.75 13.98-0.06 3.24 15.39-11.4 15.39-11.4z" fill="#BC8954"/><path d="m65.74 74.41c12.16 0.29 14.99-1.83 23.28-1.27s18.85 9.29 17.85 21.82-11.42 21.54-22.56 24.07-35.99 2.82-47.7-3.52c-11.76-6.36-14.28-14.92-14.42-22.95s5.85-19.56 18.84-20.96 12.71 2.53 24.71 2.81z" fill="#FFD3B0"/><path d="m97.92 39.64c-2.08-3.64 0-9.39 6.57-10.89s13.14 1.5 13.14 1.5-2.01 7.7-6.57 10.7c-3.85 2.54-10.14 3.94-13.14-1.31z" fill="#FFD3B0"/><path d="m25.09 29.13c-5.85-1.82-13.46 0.55-13.46 0.55s0.24 3.38 2.64 6.65c1.44 1.96 3.59 4.31 6.99 5.43 7.98 2.63 10.96-2.12 11.61-4.28 0.67-2.16-0.55-6.1-7.78-8.35z" fill="#FFD3B0"/><ellipse transform="matrix(.1426 -.9898 .9898 .1426 -14.253 98.132)" cx="49.52" cy="57.29" rx="6.85" ry="5.37" fill="#0A0A0A"/><ellipse transform="matrix(.9881 -.1539 .1539 .9881 -7.8897 13.565)" cx="83.64" cy="57.73" rx="5.37" ry="6.86" fill="#0A0A0A"/><path d="m73.14 99.52c-3-2.35-1.32-8.55 3.66-12.01 5.26-3.66 10.73-2.32 11.73-0.09 1.31 2.91-0.19 4.69-1.78 5.91-1.51 1.15-3.57 0.94-4.88 1.69s-1.88 2.72-3.66 4.32c-1.65 1.47-4.07 0.95-5.07 0.18z" fill="#2E2F31"/><path d="m40.48 87.88c0.94-4.22 7.67-4.06 12.48-0.38 5.08 3.89 6.1 9.39 3.94 11.26-2.46 2.14-4.84 1.07-6.32-0.21-1.44-1.24-1.95-2.24-3.07-3.27-1.11-1.02-3.1-1.32-5.16-2.53-1.9-1.11-2.27-3.07-1.87-4.87z" fill="#2E2F31"/></svg>

<?xml version="1.0" encoding="utf-8"?>
<!-- Generator: Adobe Illustrator 24.1.2, SVG Export Plug-In . SVG Version: 6.00 Build 0)  -->
<svg version="1.1" id="Layer_3" xmlns="http://www.w3.org/2000/svg" xmlns:xlink="http://www.w3.org/1999/xlink" x="0px" y="0px"
	 viewBox="0 0 128 128" style="enable-background:new 0 0 128 128;" xml:space="preserve">
<path style="fill:#FFB903;" d="M74.69,26.69c0,0,5.69-14.35,12.25-13.09c7.32,1.41,3.24,18.72,3.24,18.72L74.69,26.69z"/>
<path style="fill:#FFB903;" d="M55.27,24.29c0,0-6.9-13.66-12.67-11.68S41.05,32.6,41.05,32.6L55.27,24.29z"/>
<path style="fill:#DFDFDF;" d="M47.94,25.28c0,0,1.97-2.39,18.44-1.83c16.47,0.56,25.62,6.34,25.62,6.34s5.68-4.35,11.22-6.24
	c8.23-2.8,19.3,1.91,20.17,3.71c0.67,1.37-3.1,13.57-8.02,17.74c-5.49,4.65-11.4,4.36-11.4,4.36s-1.3,8.55-1.55,14.92
	c-0.14,3.66,0.36,7.48,0.99,9.43c1.27,3.94,1.99,6.65,2.62,11.48c0.53,4.03,0.62,7.94,0.62,7.94L41.33,76.66L47.94,25.28z"/>
<path style="fill:#BC8954;" d="M38.79,75.54c0,0,10.23-2.72,12.95-4.18c2.32-1.24,15.35-6.95,16.33-24.54S56.63,24.11,54.94,23.68
	c-1.69-0.42-7.79,1.22-11.36,3c-1.52,0.76-4.79,2.96-4.79,2.96s-6.48-6.76-16.61-7.74C12.05,20.91,4.44,26.26,4.3,26.97
	C4.16,27.67,8.1,41.5,15.31,46.31c2.1,1.4,4.8,2.03,6.65,2.28c4.84,0.66,6.69,0.06,6.69,0.06s-0.7,7.46-0.84,11.26
	s-0.22,9.17-0.66,13.05c-0.28,2.49-3.66,9.1-3.75,13.98C23.34,90.18,38.79,75.54,38.79,75.54z"/>
<path style="fill:#FFD3B0;" d="M65.74,74.41c12.16,0.29,14.99-1.83,23.28-1.27s18.85,9.29,17.85,21.82
	c-1,12.53-11.42,21.54-22.56,24.07c-11.14,2.53-35.99,2.82-47.7-3.52c-11.76-6.36-14.28-14.92-14.42-22.95S28.04,73,41.03,71.6
	S53.74,74.13,65.74,74.41z"/>
<path style="fill:#FFD3B0;" d="M97.92,39.64c-2.08-3.64,0-9.39,6.57-10.89c6.57-1.5,13.14,1.5,13.14,1.5s-2.01,7.7-6.57,10.7
	C107.21,43.49,100.92,44.89,97.92,39.64z"/>
<path style="fill:#FFD3B0;" d="M25.09,29.13c-5.85-1.82-13.46,0.55-13.46,0.55s0.24,3.38,2.64,6.65c1.44,1.96,3.59,4.31,6.99,5.43
	c7.98,2.63,10.96-2.12,11.61-4.28C33.54,35.32,32.32,31.38,25.09,29.13z"/>
<ellipse transform="matrix(0.1426 -0.9898 0.9898 0.1426 -14.253 98.1324)" style="fill:#0A0A0A;" cx="49.52" cy="57.29" rx="6.85" ry="5.37"/>
<ellipse transform="matrix(0.9881 -0.1539 0.1539 0.9881 -7.8897 13.5647)" style="fill:#0A0A0A;" cx="83.64" cy="57.73" rx="5.37" ry="6.86"/>
<path style="fill:#2E2F31;" d="M73.14,99.52c-3-2.35-1.32-8.55,3.66-12.01c5.26-3.66,10.73-2.32,11.73-0.09
	c1.31,2.91-0.19,4.69-1.78,5.91c-1.51,1.15-3.57,0.94-4.88,1.69c-1.31,0.75-1.88,2.72-3.66,4.32
	C76.56,100.81,74.14,100.29,73.14,99.52z"/>
<path style="fill:#2E2F31;" d="M40.48,87.88c0.94-4.22,7.67-4.06,12.48-0.38c5.08,3.89,6.1,9.39,3.94,11.26
	c-2.46,2.14-4.84,1.07-6.32-0.21c-1.44-1.24-1.95-2.24-3.07-3.27c-1.11-1.02-3.1-1.32-5.16-2.53
	C40.45,91.64,40.08,89.68,40.48,87.88z"/>
</svg>
